Breeze Round Dark/actions/24/edit-image-face-show.svg

<svg xmlns="http://www.w3.org/2000/svg" viewBox="0 0 24 24" width="24" height="24">
  <defs id="defs3051">
    <style type="text/css" id="current-color-scheme">.ColorScheme-Text {color:#fcfcfc;}</style>
  </defs>
  <g transform="translate(1,1)">
    <path style="fill:currentColor;fill-opacity:1;stroke:none" d="m 6,3 c 0,0 -3,0 -3,3 0,3 0,7 0,10 0,3 3,3 3,3 h 10 c 0,0 3,0 3,-3 C 19,13 19,9 19,6 19,3 16,3 16,3 Z M 4,6 C 4,4 6,4 6,4 h 10 c 0,0 2,0 2,2 0,2 0,8 0,10 0,2 -2,2 -2,2 H 6 C 6,18 4,18 4,16 4,14 4,8 4,6 Z M 5,5 V 6 7 H 6 V 6 H 7 V 5 Z m 6,0 C 9.6150014,5 8.5,6.1150014 8.5,7.5 8.5,8.8849986 9.6150014,10 11,10 12.384999,10 13.5,8.8849986 13.5,7.5 13.5,6.1150014 12.384999,5 11,5 Z m 4,0 v 1 h 1 v 1 h 1 V 5 Z m -4,1 c 0.830999,0 1.5,0.6690008 1.5,1.5 C 12.5,8.3309992 11.830999,9 11,9 10.169001,9 9.5,8.3309992 9.5,7.5 9.5,6.6690008 10.169001,6 11,6 Z M 5,9 v 1 1 H 7 V 10 H 6 V 9 Z m 11,0 v 1 h -1 v 1 h 2 V 10 9 Z m -5,2 C 8.5070125,11 6.5,13.007012 6.5,15.5 V 16 17 H 6.7753906 7.5 7.8457031 14.154297 15.224609 15.5 V 16 15.5 C 15.5,13.007012 13.492988,11 11,11 Z m 0,1 c 1.938988,0 3.5,1.561012 3.5,3.5 V 16 h -7 V 15.5 C 7.5,13.561012 9.0610119,12 11,12 Z" class="ColorScheme-Text"/>
  </g>
</svg>

<svg xmlns="http://www.w3.org/2000/svg" viewBox="0 0 24 24">
  <defs id="defs3051">
    <style type="text/css" id="current-color-scheme">
      .ColorScheme-Text {
        color:#eff0f1;
      }
      </style>
  </defs><g transform="translate(1,1)">
 <path 
    style="fill:currentColor;fill-opacity:1;stroke:none" 
	d="m3 3v1 15h1 15v-1-15h-16m1 1h14v14h-14v-14m1 1v1 1h1v-1h1v-1h-2m6 0c-1.385 0-2.5 1.115-2.5 2.5 0 1.385 1.115 2.5 2.5 2.5 1.385 0 2.5-1.115 2.5-2.5 0-1.385-1.115-2.5-2.5-2.5m4 0v1h1v1h1v-2h-2m-4 1c.831 0 1.5.669 1.5 1.5 0 .831-.669 1.5-1.5 1.5-.831 0-1.5-.669-1.5-1.5 0-.831.669-1.5 1.5-1.5m-6 3v1 1h2v-1h-1v-1h-1m11 0v1h-1v1h2v-1-1h-1m-5 2c-2.49299 0-4.5 2.00701-4.5 4.5v.5 1h.275391.724609.345703 6.308594 1.070312.275391v-1-.5c0-2.49299-2.00701-4.5-4.5-4.5m0 1c1.93899 0 3.5 1.56101 3.5 3.5v.5h-7v-.5c0-1.93899 1.56101-3.5 3.5-3.5"
    class="ColorScheme-Text"
    />  
</g></svg>
